!!!COM:	Pierre de la Rue
**kern	**kern
*part2	*part1
*staff2	*staff1
*clefF4	*clefF4
*k[]	*k[]
*M2/1	*M2/1
=1-	=1-
1G	0r
2.G	.
4F	.
=2	=2
2E	1r
2D	.
1C	1c
=3	=3
2r	2.c
1F	.
.	4B
.	2A
2E	2G
=4	=4
2.F	1F
4E	.
2C	2r
[2D	[2B
=5	=5
2D]	2B]
2C	2A
2.D	2.B
4C	4A
=6	=6
2AA	2F
2GG	1G
1AA	.
.	2F
=7	=7
1GG	2.G
.	4F
2r	2D
[2G	2C
=8	=8
2G]	1D
2F	.
4E	1C
4C	.
4E	.
4F	.
=9	=9
2G	2r
1A	1c
2G	2B
=10	=10
2A	4A
.	4F
2A	4A
.	4B
2A	2c
4G	[2d
4F	.
=11	=11
4E	2d]
4D	.
2E	2c
[1D	2d
.	2d
=12	=12
1D]	2d
.	4c
.	4B
2r	4A
.	4G
2D	2A
=13	=13
2E	0G
1C	.
2BB	.
=14	=14
4C	2r
4D	.
4E	2G
8DL	.
8EJ	.
2F	2A
[2D	[2F
=15	=15
2D]	2F]
2C	2E
1D	4F
.	4G
.	4A
.	8GL
.	8AJ
=16	=16
1GG	2B
.	1G
2r	.
2D	2F
=17	=17
2E	1G
1G	.
.	1C
4F	.
4E	.
=18	=18
2F	2r
1E	2G
.	2A
[2A	[2c
=19	=19
2A]	2c]
4G	4B
4F	4A
2G	2B
[2A	[2A
=20	=20
2A]	2A]
1F	1d
4E	4c
4D	4B
=21	=21
2E	2c
1D	1d
[2G	[2B
=22	=22
2G]	2B]
4F	4A
4E	4G
2F	2A
2G	[2G
=23	=23
4C	2G]
4D	.
4E	1c
4F	.
2E	.
[2D	4B
.	4A
=24	=24
2D]	2B
2C	2c
2.D	4F
.	4G
.	4A
4BB	4B
=25	=25
4C	2A
4BB	.
4AA	1G
4GG	.
1AA	.
.	2F
=26	=26
0GG	0G
==	==
*-	*-
